!!!!SEGMENT: pl-wn--mus-8167--001_zelenski-wladyslaw--humoreska.krn
!!!cenid: 18xx:3641
!!!COM: Żeleński, Władysław
!!!COM-rismID: pe41024455
!!!CDT: 1837/07/06-1921/01/23
!!!CNT: Polish
!!!OTL: Humoreska
!!!PDT:
!!!AGN:
!!!SMS-siglum: PL-Wn
!!!SMS-shelfmark: Mus.8167
!!!SMS-shelfwork: 001 W
!!!SMS-variant:
!!!SMS-altvar:
!!!NIFC-rismSourceID:
!!!NIFC-islandoraID:
!!!URL-pdf-islandora:
!!!URL-scan: https://polona.pl/item/humoreska-oboja-wiosna,NDU5Mzc1Mzg/0/#info:metadata @EN{Scan on Polona} @PL{Skany w portalu Polona}
!!!ONB-nifc:
!!!AIN: 1 bass 1 empty
!!!key:
**kern	**text	**text	**dynam	**kern	**text	**text	**dynam
*part2	*part2	*part2	*part2	*part1	*part1	*part1	*part1
*staff2	*staff2	*staff2	*	*staff1	*staff1	*staff1	*
*Ibass	*	*	*	*Iempty	*	*	*
*I"Basso	*	*	*	*I"Śpiew	*	*	*
*I'V.	*	*	*	*I'V.	*	*	*
*ICvox	*	*	*	*ICvox	*	*	*
*clefF4	*	*	*	*clefG2	*	*	*
*k[b-e-]	*	*	*	*k[b-e-]	*	*	*
*B-:	*	*	*	*B-:	*	*	*
*M2/4	*	*	*	*M2/4	*	*	*
*	*below	*above	*	*	*	*	*
=1	=1	=1	=1	=1	=1	=1	=1
*^	*	*	*	*	*	*	*
!	!	!	!	!LO:DY:a	!LO:TX:a:rj:t=Allegretto.	!	!	!
8B-/	8B-\	Pi-	In-	p	2r	.	.	.
8B-/	8B-\	-je	-dyk	.	.	.	.	.
8A/	8A\	Ku-	z so-	.	.	.	.	.
8F/	8F\	-ba	-sem	.	.	.	.	.
=2	=2	=2	=2	=2	=2	=2	=2	=2
8B-/	8B-\	do	zraz	.	2r	.	.	.
8B-/	8B-\	Ja-	z bi-	.	.	.	.	.
8A/	8A\	-ku-	-go-	.	.	.	.	.
8F/	8F\	-ba	-sem	.	.	.	.	.
=3	=3	=3	=3	=3	=3	=3	=3	=3
8G/	8G\	Ja-	daw-	.	2r	.	.	.
8G/	8G\	-kub	-niej	.	.	.	.	.
8A/	8A\	do	ja-	.	.	.	.	.
8A/	8A\	Mi-	-dły	.	.	.	.	.
=4	=4	=4	=4	=4	=4	=4	=4	=4
4B-/	4B-\	-cha-	pan-	.	2r	.	.	.
8B-/	8B-\	-ła,	-ny	.	.	.	.	.
8r	8ryy	.	.	.	.	.	.	.
!!LO:LB:g=original
=5	=5	=5	=5	=5	=5	=5	=5	=5
*	*	*^	*	*	*^	*	*	*
*	*	*	*^	*	*	*	*	*	*	*
*	*	*below	*above	*below	*abowe	*	*	*	*above	*above	*
!	!	!	!	!	!	!	!	!	!	!	!LO:DY:a
8B-/	2BB-\	pi-	pi-	ża-	dzi-	.	(4dd/	8b-\	pi-	dzi-	p
8B-/	.	.	-jesz	.	-siaj	.	.	8b-\	-jesz	-siaj	.
8A/	.	.	ty	.	ża-	.	8cc/)	(8a\	ty	ża-	.
8F/	.	.	.	.	-by	.	16ff/LL	8f\)	ty.	-by	.
.	.	.	.	.	.	.	16ee-/JJ	.	.	.	.
=6	=6	=6	=6	=6	=6	=6	=6	=6	=6	=6	=6
8B-/	2BB-\	-je	pi-	-by	i	.	[8dd/	[8b-\	pi-	i	.
8B-/	.	.	-je	.	śli-	.	8dd/]	8b-\]	-je	śli-	.
8A/	.	.	on	.	-ma-	.	8cc/L	(8a\	on	-ma-	.
8A-X/	.	.	.	.	-ki	.	8dd/J	8f\)	.	-ki	.
*	*	*	*v	*v	*	*	*	*	*	*	*
*	*	*v	*v	*	*	*	*	*	*	*
=7	=7	=7	=7	=7	=7	=7	=7	=7	=7
*	*	*	*	*	*	*	*below	*	*
8G/	8BB-\	je-	.	.	8ee-/	8b-\	kom-	.	.
8G/	8BB-\	-dzą	.	.	8ee-/	8b-\	-pa-	.	.
8F/	8BB-\	jak	.	.	8cc/	8a\	-ni-	.	.
8E-/	8BB-\	bo-	.	.	8cc/	8a\	-ja	.	.
=8	=8	=8	=8	=8	=8	=8	=8	=8	=8
8D/	8BB-\	-cia-	.	.	8b-/	8f\	ca-	.	.
8D/	8BB-\	-ny	.	.	8b-/	8f\	-ła!	.	.
8r	4ryy	.	.	.	8r	4ryy	.	.	.
8r	.	.	.	.	8r	.	.	.	.
=9!|:	=9!|:	=9!|:	=9!|:	=9!|:	=9!|:	=9!|:	=9!|:	=9!|:	=9!|:
!	!	!	!	!	!LO:TX:a:i:t=Vivo	!	!	!	!LO:DY:a
8.D/	8.BB-\	Kto	.	.	8.b-/	8.f\	A	.	f
16F/	16BB-\	ża-	.	.	16dd/	16b-\	kto	.	.
8F/	8BB-\	-ba-	.	.	8dd/	8b-\	nie-	.	.
8B-/	8BB-\	-mi	.	.	8ff/	8dd\	-wy	.	.
=10	=10	=10	=10	=10	=10	=10	=10	=10	=10
4A/	4F\	ży-	.	.	8ff/L	4cc\	pi-	.	.
.	.	.	.	.	8ee-/J	.	.	.	.
4A/	4F\	-je	.	.	4cc/	4cc\	-je	.	.
!!LO:LB:g=original
=11	=11	=11	=11	=11	=11	=11	=11	=11	=11
8.D/	8.BB-\	te-	.	.	8.b-/	8.f\	Te-	.	.
16F/	16BB-\	-go	.	.	16dd/	16b-\	-go	.	.
8F/	8BB-\	we	.	.	8dd/	8b-\	we	.	.
8B-/	8BB-\	dwa	.	.	8ff/	8dd\	dwa	.	.
=12	=12	=12	=12	=12	=12	=12	=12	=12	=12
4A/	4F\	ki-	.	.	8ff/L	4cc\	ki-	.	.
.	.	.	.	.	8ee-/J	.	.	.	.
4A/	4F\	-je	.	.	4cc/	4cc\	-je	.	.
*v	*v	*	*	*	*	*	*	*	*
=13	=13	=13	=13	=13	=13	=13	=13	=13
!	!	!	!	!LO:TX:a:i:t=Tempo I	!	!	!	!
2r	.	.	.	2r	8b-\	łu-	.	.
.	.	.	.	.	8b-\	-pu	.	.
.	.	.	.	.	8a\	cu-	.	.
.	.	.	.	.	8f\	-pu	.	.
=14	=14	=14	=14	=14	=14	=14	=14	=14
!	!	!	!	!LO:TX:a:i:t=e string	!	!	!	!LO:DY:a
2r	.	.	.	8ee-/	8g\	łu-	.	<
.	.	.	.	8ee-/	8a\	-pu	.	.
.	.	.	.	8dd/	8b-\	cu-	.	.
.	.	.	.	8b-/	8b-\	-pu	.	.
=15	=15	=15	=15	=15	=15	=15	=15	=15
*^	*	*	*	*	*	*	*	*
!LO:TX:b:i:t=e string	!	!	!	!	!	!	!	!	!
8A-X/	8A-\	.	.	<	8cc/	8b-\	łu-	.	.
8A-/	8A-\	.	.	.	8dd/	8b-\	-pu	.	.
8G/	8G\	.	.	.	8ee-/	8b-\	cu-	.	.
8E-/	8E-\	.	.	.	8gg/	8b-\	-pu	.	.
=16	=16	=16	=16	=16	=16	=16	=16	=16	=16
8G/	8C\	.	.	.	8ee-/	8b-\	łu-	.	.
8G/	8C\	.	.	.	8ee-/	8b-\	-pu	.	.
8F/	8F\	.	.	.	8cc/	8a\	cu-	.	.
!	!	!	!	!LO:DY:b	!	!	!	!	!
8F/	8F\	.	.	ff	8cc/	8a\	-pu	.	ff
=17	=17	=17	=17	=17	=17	=17	=17	=17	=17
16F/	16BB-\	.	.	.	16dd/	16b-\	łu-	.	.
16F/	16BB-\	.	.	.	16dd/	16b-\	-pu	.	.
8F/	8BB-\	.	.	.	8dd/	8b-\	cup!	.	.
!	!	!	!	!	!LO:TX:a:i:t=Vide "Lutnia"\nTom I.	!	!	!	!
4r	4ryy	.	.	.	4r	4ryy	.	.	.
*v	*v	*	*	*	*	*	*	*	*
*	*	*	*	*v	*v	*	*	*
=:|!	=:|!	=:|!	=:|!	=:|!	=:|!	=:|!	=:|!
*-	*-	*-	*-	*-	*-	*-	*-
!!!system-decoration: [(s1,s2)]
!!!ENC: Andrzej Gręziak
!!!END: 2022-02-17
!!!ENC: Leszek Kubiak
!!!END: 2022-02-19
